v2/perps-v2/ui/public/asset-icons/LINK.svg

<svg width="42" height="42" viewBox="0 0 42 42" fill="none" xmlns="http://www.w3.org/2000/svg">
<g clip-path="url(#clip0_1097_26631)">
<path d="M21 42C32.598 42 42 32.598 42 21C42 9.40202 32.598 0 21 0C9.40202 0 0 9.40202 0 21C0 32.598 9.40202 42 21 42Z" fill="#2A5ADA"/>
<g clip-path="url(#clip1_1097_26631)">
<path d="M21 6.74106L23.5926 8.2318L30.6574 12.3151L33.25 13.8059V27.9355L30.6574 29.4263L23.5278 33.5096L20.9352 35.0003L18.3426 33.5096L11.3426 29.4263L8.74998 27.9355V13.8059L11.3426 12.3151L18.4074 8.2318L21 6.74106V6.74106ZM28.0648 24.954V16.7874L21 12.704L13.9352 16.7874V24.954L21 29.0374L28.0648 24.954Z" fill="white"/>
</g>
</g>
<defs>
<clipPath id="clip0_1097_26631">
<rect width="42" height="42" fill="white"/>
</clipPath>
<clipPath id="clip1_1097_26631">
<rect width="24.5" height="28.2593" fill="white" transform="matrix(-1 0 0 1 33.25 6.74106)"/>
</clipPath>
</defs>
</svg>

<svg width="42" height="42" fill="none" xmlns="http://www.w3.org/2000/svg"><g clip-path="url(#a)"><path d="M21 42c11.598 0 21-9.402 21-21S32.598 0 21 0 0 9.402 0 21s9.402 21 21 21Z" fill="#2A5ADA"/><g clip-path="url(#b)"><path d="m21 6.741 2.593 1.49 7.064 4.084 2.593 1.49v14.13l-2.593 1.491-7.13 4.084L20.936 35l-2.592-1.49-7-4.084-2.593-1.49v-14.13l2.593-1.49 7.064-4.084L21 6.742Zm7.065 18.213v-8.167L21 12.704l-7.065 4.083v8.167L21 29.037l7.065-4.083Z" fill="#fff"/></g></g><defs><clipPath id="a"><path fill="#fff" d="M0 0h42v42H0z"/></clipPath><clipPath id="b"><path fill="#fff" transform="matrix(-1 0 0 1 33.25 6.741)" d="M0 0h24.5v28.259H0z"/></clipPath></defs></svg>
